swiss/communes/5562.svg

<?xml version="1.0" encoding="UTF-8" standalone="no"?>
<svg
   xmlns:dc="http://purl.org/dc/elements/1.1/"
   xmlns:cc="http://creativecommons.org/ns#"
   xmlns:rdf="http://www.w3.org/1999/02/22-rdf-syntax-ns#"
   xmlns:svg="http://www.w3.org/2000/svg"
   xmlns="http://www.w3.org/2000/svg"
   xmlns:xlink="http://www.w3.org/1999/xlink"
   xmlns:sodipodi="http://sodipodi.sourceforge.net/DTD/sodipodi-0.dtd"
   xmlns:inkscape="http://www.inkscape.org/namespaces/inkscape"
   height="763"
   width="603"
   version="1.0"
   id="svg20"
   sodipodi:version="0.32"
   inkscape:version="0.46"
   sodipodi:docname="Mauborget-coat_of_arms.svg"
   sodipodi:docbase="C:\Documents and Settings\Steve\Bureau\Blason Villages Suisse pour Wikipédia (par Delta-9)"
   inkscape:output_extension="org.inkscape.output.svg.inkscape">
  <metadata
     id="metadata31">
    <rdf:RDF>
      <cc:Work
         rdf:about="">
        <dc:format>image/svg+xml</dc:format>
        <dc:type
           rdf:resource="http://purl.org/dc/dcmitype/StillImage" />
        <dc:date>07-AUG-2006</dc:date>
        <dc:creator>
          <cc:Agent>
            <dc:title>Jérôme BLUM (wagner51)</dc:title>
          </cc:Agent>
        </dc:creator>
        <cc:license
           rdf:resource="http://creativecommons.org/licenses/GPL/2.0/" />
        <dc:coverage />
        <dc:description>Gabarit pour le Projet:Blasons de WIkipédia</dc:description>
        <dc:subject>
          <rdf:Bag>
            <rdf:li>blason suisse modèle gabarit projet blasons</rdf:li>
          </rdf:Bag>
        </dc:subject>
        <dc:language>fr</dc:language>
        <dc:title>Gabrit d'un blason suisse</dc:title>
      </cc:Work>
      <cc:License
         rdf:about="http://creativecommons.org/licenses/GPL/2.0/">
        <cc:permits
           rdf:resource="http://web.resource.org/cc/Reproduction" />
        <cc:permits
           rdf:resource="http://web.resource.org/cc/Distribution" />
        <cc:requires
           rdf:resource="http://web.resource.org/cc/Notice" />
        <cc:permits
           rdf:resource="http://web.resource.org/cc/DerivativeWorks" />
        <cc:requires
           rdf:resource="http://web.resource.org/cc/ShareAlike" />
        <cc:requires
           rdf:resource="http://web.resource.org/cc/SourceCode" />
      </cc:License>
    </rdf:RDF>
  </metadata>
  <defs
     id="defs29"><inkscape:perspective
   sodipodi:type="inkscape:persp3d"
   inkscape:vp_x="0 : 381.5 : 1"
   inkscape:vp_y="0 : 1000 : 0"
   inkscape:vp_z="603 : 381.5 : 1"
   inkscape:persp3d-origin="301.5 : 254.33333 : 1"
   id="perspective28" />
<linearGradient
   id="linearGradient2893">
  <stop
     style="stop-color:#ffffff;stop-opacity:0.3137255;"
     offset="0"
     id="stop2895" />
  <stop
     id="stop2897"
     offset="0.19"
     style="stop-color:#ffffff;stop-opacity:0.25098041;" />
  <stop
     style="stop-color:#6b6b6b;stop-opacity:0.1254902;"
     offset="0.60000002"
     id="stop2901" />
  <stop
     style="stop-color:#000000;stop-opacity:0.1254902;"
     offset="1"
     id="stop2899" />
</linearGradient>
<linearGradient
   id="linearGradient2955">
  <stop
     style="stop-color:white;stop-opacity:0;"
     offset="0"
     id="stop2965" />
  <stop
     style="stop-color:black;stop-opacity:0.64583331;"
     offset="1"
     id="stop2959" />
</linearGradient>
<radialGradient
   inkscape:collect="always"
   xlink:href="#linearGradient2893"
   id="radialGradient3236"
   gradientUnits="userSpaceOnUse"
   gradientTransform="matrix(1.215027,1.531577e-24,1.464684e-23,1.266667,-839.1924,-490.4894)"
   cx="858.04236"
   cy="579.93323"
   fx="858.04236"
   fy="579.93323"
   r="300" />
<inkscape:perspective
   id="perspective2480"
   inkscape:persp3d-origin="297.63751 : 280.63 : 1"
   inkscape:vp_z="595.27502 : 420.94501 : 1"
   inkscape:vp_y="0 : 1000 : 0"
   inkscape:vp_x="0 : 420.94501 : 1"
   sodipodi:type="inkscape:persp3d" />

	
	

	

		
		
		
	
		
		
	</defs>
  <sodipodi:namedview
     inkscape:window-height="968"
     inkscape:window-width="1280"
     inkscape:pageshadow="2"
     inkscape:pageopacity="0.0"
     guidetolerance="10.0"
     gridtolerance="10.0"
     objecttolerance="10.0"
     borderopacity="1.0"
     bordercolor="#666666"
     pagecolor="#ffffff"
     id="base"
     inkscape:zoom="0.48567682"
     inkscape:cx="261.32124"
     inkscape:cy="182.23572"
     inkscape:window-x="1280"
     inkscape:window-y="22"
     inkscape:current-layer="layer2"
     showgrid="false"
     showguides="true"
     inkscape:guide-bbox="true">
    <sodipodi:guide
       orientation="horizontal"
       position="761.5"
       id="guide1885" />
    <sodipodi:guide
       orientation="vertical"
       position="1.5"
       id="guide1887" />
    <sodipodi:guide
       orientation="horizontal"
       position="1.5"
       id="guide1889" />
    <sodipodi:guide
       orientation="vertical"
       position="601.5"
       id="guide1891" />
    <sodipodi:guide
       orientation="vertical"
       position="301.50081"
       id="guide1893" />
  </sodipodi:namedview>
  <desc
     id="desc22">Coat of Arms of Canton of Freiburg (Fribourg)</desc>
  <g
     inkscape:groupmode="layer"
     id="layer1"
     inkscape:label="Fond écu"
     style="opacity:1"
     sodipodi:insensitive="true">
    <path
       id="path1899"
       d="M 1.5,1.49998 L 1.5,460.3679 C 1.5,626.6785 135.81456,761.5 301.49999,761.5 C 467.18543,761.5 601.5,626.6785 601.5,460.3679 L 601.5,1.49998 L 1.5,1.49998 z"
       style="fill:#ffffff;fill-opacity:1" />
  </g>
  <g
     inkscape:groupmode="layer"
     id="layer2"
     inkscape:label="Meubles"
     style="opacity:1;display:inline"
     sodipodi:insensitive="true">
    <path
       style="fill:#2b5df2"
       id="path2741"
       d="M 501.50081,1.503 L 501.50081,684.797 C 562.86881,629.658 601.50181,549.547 601.50181,460.369 L 601.50181,1.503 L 501.50081,1.503 z M 101.50481,684.797 C 130.35981,710.723 164.24081,731.119 201.50481,744.34 L 201.50481,1.503 L 101.50481,1.503 L 101.50481,684.797 L 101.50481,684.797 z M 301.50081,761.5 C 336.56681,761.5 370.22281,755.439 401.49981,744.342 L 401.49981,1.503 L 301.50081,1.503 L 301.50081,761.5 L 301.50081,761.5 z" />
    <path
       style="fill:none;stroke:#000000;stroke-width:3"
       id="path2743"
       d="M 501.50081,1.503 L 501.50081,684.797 M 101.50481,1.503 L 101.50481,684.797 M 201.50381,744.34 L 201.50381,1.503 M 301.50081,275.569 L 301.50081,761.502 M 301.50081,1.503 L 301.50081,191.575 M 401.49981,744.342 L 401.49981,1.503" />
    <path
       style="fill:#e20909"
       d="M 581.10081,486.82 L 581.10081,569.673 C 589.09481,549.087 594.90781,527.406 598.23081,504.909 L 581.10081,486.82 z M 511.20081,413.009 L 441.29981,339.196 L 441.29981,423.22 L 371.40081,349.409 L 371.40081,265.385 L 301.50081,191.573 L 301.50081,275.597 L 231.60181,201.786 L 231.60181,117.762 L 161.70281,43.951 L 161.70281,127.975 L 91.80181,54.166 L 91.80181,1.506 L 1.50481,1.506 L 1.50481,126.838 L 516.33081,670.538 C 543.97181,642.07 566.03281,608.132 580.77481,570.5 L 511.20181,497.033 L 511.20181,413.009 L 511.20081,413.009 z"
       id="path2470" />
    <path
       style="fill:none;stroke:#000000;stroke-width:3"
       id="path2489_2_"
       d="M 1.50481,126.838 L 1.50481,126.838 L 516.33081,670.538" />
    <path
       style="fill:none;stroke:#000000;stroke-width:3"
       d="M 598.23081,504.909 L 581.10081,486.82 L 581.10081,569.673 M 580.77481,570.5 L 511.20181,497.033 L 511.20181,413.01 L 441.30081,339.197 L 441.30081,423.221 L 371.40181,349.41 L 371.40181,265.386 L 301.50181,191.574 L 301.50181,275.598 L 231.60281,201.787 L 231.60281,117.763 L 161.70381,43.952 L 161.70381,127.976 L 91.80181,54.166 L 91.80181,1.506"
       id="path2473" />
  </g>
  <g
     inkscape:groupmode="layer"
     id="layer3"
     inkscape:label="Reflet final"
     style="display:inline"
     sodipodi:insensitive="true">
    <path
       style="fill:url(#radialGradient3236);fill-opacity:1"
       d="M 1.5,1.5 L 1.5,460.3679 C 1.5,626.67854 135.81454,761.5 301.49993,761.5 C 467.1854,761.5 601.5,626.67854 601.5,460.3679 L 601.5,1.5 L 1.5,1.5 z "
       id="path2346" />
  </g>
  <g
     inkscape:groupmode="layer"
     id="layer4"
     inkscape:label="Contour final"
     style="display:inline"
     sodipodi:insensitive="true">
    <path
       style="fill:none;fill-opacity:1;stroke:#000000;stroke-width:3;stroke-miterlimit:4;stroke-dasharray:none;stroke-opacity:1"
       d="M 1.5,1.5 L 1.5,460.36794 C 1.5,626.67854 135.81454,761.5 301.49993,761.5 C 467.1854,761.5 601.5,626.67854 601.5,460.36794 L 601.5,1.5 L 1.5,1.5 z "
       id="path3239" />
  </g>
</svg>

<svg xmlns="http://www.w3.org/2000/svg" xmlns:xlink="http://www.w3.org/1999/xlink" height="763" width="603" version="1.0"><defs><radialGradient xlink:href="#a" id="b" gradientUnits="userSpaceOnUse" gradientTransform="matrix(1.21503 0 0 1.26667 -839.192 -490.49)" cx="858.042" cy="579.933" fx="858.042" fy="579.933" r="300"/><linearGradient id="a"><stop style="stop-color:#fff;stop-opacity:.3137255" offset="0"/><stop offset=".19" style="stop-color:#fff;stop-opacity:.25098041"/><stop style="stop-color:#6b6b6b;stop-opacity:.1254902" offset=".6"/><stop style="stop-color:#000;stop-opacity:.1254902" offset="1"/></linearGradient></defs><g style="opacity:1"><path d="M1.5 1.5v458.868c0 166.31 134.315 301.132 300 301.132s300-134.822 300-301.132V1.5H1.5z" style="fill:#fff;fill-opacity:1"/></g><g style="opacity:1;display:inline"><path style="fill:#2b5df2" d="M501.5 1.503v683.294c61.369-55.139 100.002-135.25 100.002-224.428V1.503H501.5zM101.506 684.797c28.855 25.926 62.736 46.322 100 59.543V1.503h-100v683.294zM301.5 761.5c35.066 0 68.722-6.061 99.999-17.158V1.503h-100V761.5z"/><path style="fill:none;stroke:#000;stroke-width:3" d="M501.5 1.503v683.294M101.506 1.503v683.294m99.999 59.543V1.503M301.5 275.569v485.933m0-759.999v190.072M401.5 744.342V1.503"/><path style="fill:#e20909" d="M581.1 486.82v82.853a299.849 299.849 0 0 0 17.13-64.764L581.1 486.82zm-69.9-73.811-69.9-73.813v84.024l-69.9-73.811v-84.024l-69.9-73.812v84.024l-69.898-73.811v-84.024l-69.9-73.811v84.024l-69.9-73.809V1.506H1.505v125.332l514.826 543.7c27.64-28.468 49.702-62.406 64.444-100.038l-69.573-73.467v-84.024h-.001z"/><path style="fill:none;stroke:#000;stroke-width:3" d="m1.505 126.838 514.826 543.7M598.23 504.909 581.1 486.82v82.853m-.325.827-69.573-73.467V413.01L441.3 339.197v84.024l-69.9-73.811v-84.024l-69.9-73.812v84.024l-69.898-73.811v-84.024l-69.9-73.811v84.024l-69.901-73.81V1.506"/></g><g style="display:inline"><path style="fill:url(#b);fill-opacity:1" d="M1.5 1.5v458.868c0 166.31 134.315 301.132 300 301.132s300-134.821 300-301.132V1.5H1.5z"/></g><g style="display:inline"><path style="fill:none;fill-opacity:1;stroke:#000;stroke-width:3;stroke-miterlimit:4;stroke-dasharray:none;stroke-opacity:1" d="M1.5 1.5v458.868c0 166.31 134.315 301.132 300 301.132s300-134.821 300-301.132V1.5H1.5z"/></g></svg>
